X:1
T:Silently o’er Bethlehem
T:Silently o’er Bethlehem
T:John David Brunk
T:John Walter Wayland, 1916
T:Public Domain Courtesy of the Cyber Hymnal™
T:Public Domain Courtesy of the Cyber Hymnal™
T:Public Domain Courtesy of the Cyber Hymnal™
C:John David Brunk
Z:Public Domain
Z:Courtesy of the Cyber Hymnal™
%%score ( 1 2 ) 3 4
L:1/8
Q:1/4=95
M:6/8
K:F
V:1 treble 
V:2 treble 
V:3 treble 
V:4 bass 
V:1
 F2 F F2 z | F2 F F2 F | F2 F F2 z | E2 E E2 E | E2 E E2 E | F2 F F3 | FFF F2 F | G2 G G2 z | %8
w: 1.~Si- lent- ly,|si- lent- ly o’er|Beth- le- hem,|Si- lent- ly come|ze- phyrs from the|sea, the sea;|Gent- ly, like per- fumed,|per- fumed breath;|
w: 2.~Si- lent- ly,|si- lent- ly o’er|Beth- le- hem,|Si- lent- ly the|heav- ens smile a-|bove, a- bove;|And all the shin- ing|stars beam down,|
w: 3.~Si- lent- ly,|si- lent- ly o’er|Beth- le- hem,|Si- lent- ly, from|wait- ing courts on|high, on high,|Bright an- gel choirs with|tun- èd lyres,|
w: 4.~Si- lent- ly,|si- lent- ly o’er|Beth- le- hem,|Si- lent- ly from|Heav- en, pure and|un- de- filed,|All meek- ly now doth|en- ter in,|
 GGG G2 G | F2 F F2 F | B2 B B2 F | F3 E3 | F6 || [FA]2 [FA] [FA]3 |!<(! [FA]2 [FA] [FA]3!<)! | %15
w: Gent- ly, like per- fumed,|per- fumed breath, Or|mys- ter- y, sweet|mys- ter-|y.|Si- lent- ly,|si- lent- ly,|
w: And all the shin- ing|stars beam down, Like|watch- ing eyes, like|eyes of|love.|Si- lent- ly,|si- lent- ly,|
w: Bright an- gel choirs with|tun- èd lyres, In|read- i- ness from|Heav’n draw|nigh.|Si- lent- ly,|si- lent- ly,|
w: All meek- ly now doth|en- ter in, The|Spir- it of the|ho- ly|Child.|Si- lent- ly,|si- lent- ly,|
!>(! [FG]2 [FG] [EG]2 [EG] | F3-!>)! F2 z |"^pp" [DF]2 [DF] [DF]3 | %18
w: Ze- phyrs from the|sea; *|Si- lent- ly,|
w: Smile ye heav’ns a-|bove; *|Si- lent- ly,|
w: Wait ye courts on|high; *|Si- lent- ly,|
w: Meek and un- de-|filed; *|Si- lent- ly,|
"^rit. e dim." [DF]2 [DF] [CF]3 | [DF]2!<(! [DF] [DF]2!<)!!>(! [DG] | [CA]6!>)! |] %21
w: si- lent- ly,|O sweet mys- te-|ry.|
w: si- lent- ly,|Watch, O eyes of|love!|
w: si- lent- ly,|Come ye an- gels|nigh.|
w: si- lent- ly,|Come, O heav’n- ly|Child!|
V:2
 x6 | x6 | x6 | x6 | x6 | x6 | x6 | x6 | x6 | x6 | x6 | x6 | x6 || x6 | x6 | x6 | F3- F2 x | x6 | %18
 x6 | x6 | x6 |] %21
V:3
 c4 =Bc | A4 FG | A3- A2 A | (B4 A)B | c3- c2 G | A6 | (d4 ^c)d | (B4 A)B | (e4 d)e | f3- f2 f | %10
w: 1.~Si- lent- ly|o’er Beth- le-|hem * Come|ze- * phyrs|from * the|sea;|Gent- * ly,|like * a|per- * fumed|breath, * Or|
w: 2.~Si- lent- ly|o’er Beth- le-|hem * The|heav- * ens|smile * a-|bove;|All * the|shin- * ing|stars * beam|down * Like|
w: 3.~Si- lent- ly|o’er Beth- le-|hem * From|wait- * ing|courts * on|high,|An- * gel|choirs * with|tun- * èd|lyres * In|
w: 4.~Si- lent- ly|o’er Beth- le-|hem * From|heav- * en|un- * de-|filed,|Meek- * ly|now * doth|en- * ter|in * The|
 (f4 e)d | c3 c3 | c6 || x6 | x6 | x6 | x6 | x6 | x6 | x6 | x6 |] %21
w: some * sweet|mys- ter-|y.|||||||||
w: watch- * ing|eyes of|love.|||||||||
w: read- * i-|ness draw|nigh.|||||||||
w: Spir- * it|of a|Child.|||||||||
V:4
 [F,A,]2 [F,A,] A,2 z | [F,C]2 [F,C] [F,C]2 [F,C] | [F,C]2 [F,C] [F,C]2 z | %3
 [C,C]2 [C,C] [C,C]2 [C,G,] | [C,G,]2 [C,G,] [C,G,]2 [C,C] | [F,C]2 [F,C] [F,C]3 | %6
 [B,,B,][B,,B,][B,,B,] [B,,B,]2 [B,,B,] | [G,,D]2 [G,,D] [G,,D]2 z | %8
 [C,B,][C,B,][C,B,] [C,B,]2 [C,B,] | [D,A,]2 [D,A,] [D,A,]2 [D,A,] | %10
 [B,,D]2 [B,,D] [B,,D]2 [B,,B,] | [C,A,]3 [C,B,]3 | [F,A,]6 || [F,C]2 [F,C] [F,C]3 | %14
 [D,D]2 [D,D] [D,D]3 | [B,,D]2 [B,,D] [C,C]2 [C,B,] | [F,A,]3- [F,A,]2 z | [D,A,]2 [D,A,] [D,A,]3 | %18
 [B,,B,]2 [B,,B,] [F,A,]3 | [D,A,]2 [D,A,] [B,,B,]2 [B,,F,] | [F,,F,]6 |] %21

